X:1
T:Jerusalem surge - Viadana
T:James Gibb editions
T:#
%%score [ 1 2 3 4 ]
L:1/8
Q:1/4=200
M:none
K:F
V:1 treble nm="Soprano" snm="S"
V:2 treble nm="Alto" snm="A"
V:3 treble-8 nm="Tenor" snm="T"
V:4 bass nm="Bass" snm="B"
V:1
"^Jerusalem surge, et exue""^Ludovico da Viadana\n(1560-1627)" G8 F6 G2 | A4 B8 A4 | A4 G6 G2 G4 | %3
w: Je- ru- sa-|lem sur- ge,|et e- xu- e|
 F4 F6 F2 G4 | A4 A2 G2 A4 B4 | z4 A4 A6 A2 | G4 G6 G2 A4 | G4 F4 G6 G2 | ^F16 || G8 A4 G4 | %10
w: te ve- sti- bus|ju- cun- di- ta- tis:|in- du- e-|re ci- ne- re|et ci- li- ci-|o:|Qui- a in|
 F4 G4 G6 F2 | _E4 F4 F8 | F4 G8 ^F4 | G16 || F16 | G8 A8 | G16 | G6 G2 F8 | _E8 D16 || G8 A4 G4 | %20
w: te oc- ci- sus|est Sal- va-|tor Is- ra-|el.|Deduc~quasi~torrentem~lacrymas~per~diem~et|no- ctem,|et~non~taceat~pupilla|o- cu- li|tu- i.|Qui- a in|
 F4 G4 G6 F2 |[Q:1/4=197] _E4[Q:1/4=193] F4[Q:1/4=188] F8 | %22
w: te oc- ci- sus|est Sal- va-|
[Q:1/4=182] F4[Q:1/4=177] G8[Q:1/4=171] ^F4 |[Q:1/4=170] G16 |] %24
w: tor Is- ra-|el.|
V:2
 D8 D6 D2 | F4 F8 F4 | F4 D6 _E2 C4 | D4 D6 D2 D4 | F4 F2 D2 F4 F4 | z4 F4 F6 F2 | E4 D6 D2 D4 | %7
w: Je- ru- sa-|lem sur- ge,|et e- xu- e|te ve- sti- bus|ju- cun- di- ta- tis:|in- du- e-|re ci- ne- re|
 D4 D4 B,6 C2 | D16 || D8 D4 D4 | D4 D4 _E6 D2 | C4 C4 D8- | D4 D4 D6 D2 | D16 || D16 | D8 F8 | %16
w: et ci- li- ci-|o:|Qui- a in|te oc- ci- sus|est Sal- va\-|* tor Is- ra-|el.|Deduc~quasi~torrentem~lacrymas~per~diem~et|no- ctem,|
 _E16 | _E6 E2 D8 | C8 =B,16 || D8 D4 D4 | D4 D4 _E6 D2 | C4 C4 D8- | D4 D4 D6 D2 | D16 |] %24
w: et~non~taceat~pupilla|o- cu- li|tu- i.|Qui- a in|te oc- ci- sus|est Sal- va\-|* tor Is- ra-|el.|
V:3
 B8 A6 B2 | c4 d8 c4 | c4 B6 c2 G4 | A4 A6 A2 B4 | d4 c2 B2 c4 d4 | z4 d4 c6 c2 | c4 B6 B2 A4 | %7
w: Je- ru- sa-|lem sur- ge,|et e- xu- e|te ve- sti- bus|ju- cun- di- ta- tis:|in- du- e-|re ci- ne- re|
 B4 A4 G6 G2 | A16 || B8 A4 B4 | A4 B4 B6 B2 | G4 A4 A8 | B8 A6 A2 | G16 || A16 | B8 c8 | c16 | %17
w: et ci- li- ci-|o:|Qui- a in|te oc- ci- sus|est Sal- va-|tor Is- ra-|el.|Deduc~quasi~torrentem~lacrymas~per~diem~et|no- ctem,|et~non~taceat~pupilla|
 B6 B2 B8 | G8 G16 || B8 A4 B4 | A4 B4 B6 B2 | G4 A4 A8 | B8 A6 A2 | G16 |] %24
w: o- cu- li|tu- i.|Qui- a in|te oc- ci- sus|est Sal- va-|tor Is- ra-|el.|
V:4
 G,8 D,6 G,2 | F,4 B,8 F,4 | F,4 G,6 C,2 _E,4 | D,4 D,6 D,2 G,4 | D,4 F,2 G,2 F,4 B,,4 | %5
w: Je- ru- sa-|lem sur- ge,|et e- xu- e|te ve- sti- bus|ju- cun- di- ta- tis:|
 z4 D,4 F,6 F,2 | C,4 G,6 G,2 ^F,4 | G,4 D,4 _E,6 E,2 | D,16 || G,8 ^F,4 G,4 | D,4 G,4 _E,6 B,,2 | %11
w: in- du- e-|re ci- ne- re|et ci- li- ci-|o:|Qui- a in|te oc- ci- sus|
 C,4 F,4 (D,6 C,2 | B,,4 G,,4 D,6 D,2 | G,,16 || D,16 | G,8 F,8 | C,16 | _E,6 E,2 B,,8 | %18
w: est Sal- va\- *|* tor Is- ra-|el.|Deduc~quasi~torrentem~lacrymas~per~diem~et|no- ctem,|et~non~taceat~pupilla|o- cu- li|
 C,8 G,,16 || G,8 ^F,4 G,4 | D,4 G,4 _E,6 B,,2 | C,4 F,4 D,6 C,2 | B,,4) G,,4 D,6 D,2 | G,,16 |] %24
w: tu- i.|Qui- a in|te oc- ci- sus|est Sal- va\- *|* tor Is- ra-|el.|

